X:1
T:Old Soldiers (2)
M:4/4
L:1/8
K:C
 cc| c2 ccc-c cc| c6 cc| cc cc cc cc| c6 cc| c2 cc cc cc| c6 c3.99999962500005/5.99999925000009 c3.99999962500005/5.99999925000009 c3.99999962500005/5.99999925000009|\
 c4 c2 c2| B2 A2 d4| g2 f2 e4| d4 c2 c2|
